X:120
T:Joys of Quebec
M:2/2
L:1/8
C:Traditional
K:A
z4 z2 ee|:"A"e2 cc c2 ee|e2 cc c2 ee|f2 e2 d2 c2|"E"d2 BB B2 dd|
"E"d2 BB B2 dd|d2 BB B2 ef|[1 "E"g2 f2 e2 d2|"A"c2 AA A2 ee:|[2"E"g2 e2 f2 g2|"A"a4 ABcd|
|:"A"e2 z2 "D"f2 z2|"A"e4 z2 AB|c2 c2 "D"d2 B2|"A"c8|
"A"c2 A2 G2 A2|"E"B4 B2 e2|[1 g2 f2 e2 d2|"A"c4 ABcd:|[2"E"g2 e2 f2 g2|"A"a8||
